X: 411
T: A Trip To Highgate
R: jig
M: 6/8
K: Gmajor
|:D|G2 B B2 d|d2 g g2 d|edc BAG|FGA AFD|
G2 B B2 d|d2 g g2 d|edc BAG|d3- d2:|
|:d|d2 D D2 c|c2 C C2 c|B2 A GFG|AFD D2 d|
d2 D D2 c|c2 C C2 c|BAG AGF|G3- G2:|

